assets/icons/qvision/bluetooth_disabled.svg

<svg xmlns="http://www.w3.org/2000/svg" height="24" viewBox="0 0 24 24" width="24"><path d="M0 0h24v24H0z" fill="none"/><path d="M13 5.83l1.88 1.88-1.6 1.6 1.41 1.41 3.02-3.02L12 2h-1v5.03l2 2v-3.2zM5.41 4L4 5.41 10.59 12 5 17.59 6.41 19 11 14.41V22h1l4.29-4.29 2.3 2.29L20 18.59 5.41 4zM13 18.17v-3.76l1.88 1.88L13 18.17z"/></svg>

<svg width="24" height="24" viewBox="0 0 24 24" fill="none" xmlns="http://www.w3.org/2000/svg">
<g clip-path="url(#clip0_147_2358)">
<path d="M13 5.83L14.88 7.71L13.28 9.31L14.69 10.72L17.71 7.7L12 2H11V7.03L13 9.03V5.83ZM5.41 4L4 5.41L10.59 12L5 17.59L6.41 19L11 14.41V22H12L16.29 17.71L18.59 20L20 18.59L5.41 4ZM13 18.17V14.41L14.88 16.29L13 18.17Z" fill="#323232"/>
</g>
<defs>
<clipPath id="clip0_147_2358">
<rect width="24" height="24" fill="white"/>
</clipPath>
</defs>
</svg>
